exports/stratospheric-chorine-concentrations_v1_850x600.svg

<svg xmlns="http://www.w3.org/2000/svg" version="1.1" style="background-color:#fff;-webkit-font-smoothing:antialiased" width="850" height="600" font-family="'Helvetica Neue',Helvetica,Arial,sans-serif" font-size="18" text-rendering="optimizeLegibility"><g class="ChartTab"><g class="HeaderView"><g opacity=".8" transform="matrix(.27 0 0 .27 778 15)"><a xmlns:xlink="http://www.w3.org/1999/xlink" xlink:href="https://ourworldindata.org" target="_blank"><g><path fill="#1B2543" d="M0 0h211.2v130.1H0z"/><path fill="#E63912" d="M0 112.2h211.2v17.9H0z"/><g><path fill="none" d="M1.2 12.3h210.2v99.2H1.2z"/><path fill="#FFF" d="M37.8 32.2c0 12.7-7.7 19.4-17.1 19.4-9.7 0-16.6-7.5-16.6-18.7 0-11.7 7.3-19.3 17.1-19.3 10.1.1 16.6 7.7 16.6 18.6zm-28.6.6c0 7.9 4.3 14.9 11.8 14.9 7.5 0 11.8-6.9 11.8-15.3 0-7.3-3.8-14.9-11.8-14.9-7.9 0-11.8 7.3-11.8 15.3zM62.7 43.8c0 2.7.1 5.1.2 7.2h-4.3l-.3-4.3h-.1c-1.3 2.1-4 4.9-8.8 4.9-4.2 0-9.1-2.3-9.1-11.6V24.6h4.8v14.6c0 5 1.5 8.4 5.9 8.4 3.2 0 5.5-2.2 6.3-4.4.3-.7.4-1.6.4-2.5V24.6h4.8v19.2zM67.3 32.8c0-3.1-.1-5.8-.2-8.2h4.2l.2 5.2h.2c1.2-3.5 4.1-5.8 7.3-5.8.5 0 .9.1 1.4.2v4.5c-.5-.1-1-.2-1.6-.2-3.4 0-5.8 2.6-6.5 6.2-.1.7-.2 1.4-.2 2.2V51h-4.8V32.8zM95.4 51L86 14.2h5l4.4 18.6c1.1 4.6 2.1 9.2 2.7 12.7h.1c.6-3.7 1.8-8 3-12.8l4.9-18.5h5l4.5 18.7c1 4.4 2 8.7 2.6 12.6h.1c.8-4 1.8-8.1 3-12.7l4.9-18.5h4.9L120.6 51h-5L111 31.9c-1.1-4.7-1.9-8.3-2.4-12h-.1c-.7 3.7-1.5 7.3-2.8 12L100.4 51h-5zM154.9 37.6c0 9.8-6.8 14-13.2 14-7.2 0-12.7-5.2-12.7-13.6 0-8.8 5.8-14 13.1-14 7.7 0 12.8 5.5 12.8 13.6zm-21 .3c0 5.8 3.3 10.1 8 10.1 4.6 0 8-4.3 8-10.3 0-4.5-2.2-10.1-7.9-10.1s-8.1 5.2-8.1 10.3zM158.2 32.8c0-3.1-.1-5.8-.2-8.2h4.2l.2 5.2h.2c1.2-3.5 4.1-5.8 7.3-5.8.5 0 .9.1 1.4.2v4.5c-.5-.1-1-.2-1.6-.2-3.4 0-5.8 2.6-6.5 6.2-.1.7-.2 1.4-.2 2.2V51h-4.8V32.8zM173.5 12.3h4.8V51h-4.8V12.3zM206.5 12.3v31.9c0 2.3.1 5 .2 6.8h-4.3l-.2-4.6h-.2c-1.5 2.9-4.7 5.2-9 5.2-6.4 0-11.3-5.4-11.3-13.4-.1-8.8 5.4-14.2 11.9-14.2 4 0 6.8 1.9 8 4h.1V12.3h4.8zm-4.8 23.1c0-.6-.1-1.4-.2-2a7 7 0 00-6.9-5.6c-5 0-7.9 4.4-7.9 10.2 0 5.3 2.6 9.8 7.8 9.8 3.2 0 6.2-2.1 7.1-5.7.2-.7.2-1.3.2-2.1v-4.6zM42.8 64c.1 1.6-1.1 2.9-3.1 2.9-1.7 0-2.9-1.3-2.9-2.9 0-1.7 1.3-3 3-3 1.9 0 3 1.3 3 3zm-5.4 33.8V71.4h4.8v26.4h-4.8zM47.5 78.6c0-2.7-.1-5-.2-7.1h4.3l.3 4.4h.1c1.3-2.5 4.4-5 8.8-5 3.7 0 9.4 2.2 9.4 11.2v15.8h-4.8V82.6c0-4.3-1.6-7.8-6.1-7.8-3.2 0-5.6 2.2-6.5 4.9-.2.6-.3 1.4-.3 2.2v15.9h-4.8V78.6zM84 61.6c2.9-.4 6.3-.8 10.1-.8 6.8 0 11.7 1.6 14.9 4.6 3.3 3 5.2 7.3 5.2 13.2 0 6-1.9 10.9-5.3 14.3-3.4 3.4-9.1 5.3-16.3 5.3-3.4 0-6.2-.2-8.6-.4V61.6zm4.8 32.5c1.2.2 3 .3 4.8.3 10.2 0 15.7-5.7 15.7-15.6.1-8.7-4.9-14.2-14.9-14.2-2.5 0-4.3.2-5.6.5v29zM132.1 97.8l-.4-3.3h-.2a9.79 9.79 0 01-8.1 3.9c-5.4 0-8.1-3.8-8.1-7.6 0-6.4 5.7-9.9 15.9-9.8v-.5c0-2.2-.6-6.1-6-6.1-2.5 0-5 .8-6.9 2l-1.1-3.2c2.2-1.4 5.4-2.3 8.7-2.3 8.1 0 10.1 5.5 10.1 10.8v9.9c0 2.3.1 4.5.4 6.3h-4.3zm-.7-13.4c-5.3-.1-11.2.8-11.2 5.9 0 3.1 2.1 4.6 4.5 4.6 3.4 0 5.6-2.2 6.4-4.4.2-.5.3-1 .3-1.5v-4.6zM146.6 63.9v7.6h6.9v3.7h-6.9v14.2c0 3.3.9 5.1 3.6 5.1 1.3 0 2.2-.2 2.8-.3l.2 3.6c-.9.4-2.4.7-4.3.7-2.2 0-4-.7-5.2-2-1.4-1.4-1.9-3.8-1.9-6.9V75.1h-4.1v-3.7h4.1v-6.3l4.8-1.2zM171.4 97.8l-.4-3.3h-.2a9.79 9.79 0 01-8.1 3.9c-5.4 0-8.1-3.8-8.1-7.6 0-6.4 5.7-9.9 15.9-9.8v-.5c0-2.2-.6-6.1-6-6.1-2.5 0-5 .8-6.9 2l-1.1-3.2c2.2-1.4 5.4-2.3 8.7-2.3 8.1 0 10.1 5.5 10.1 10.8v9.9c0 2.3.1 4.5.4 6.3h-4.3zm-.7-13.4c-5.3-.1-11.2.8-11.2 5.9 0 3.1 2.1 4.6 4.5 4.6 3.4 0 5.6-2.2 6.4-4.4.2-.5.3-1 .3-1.5v-4.6z"/></g></g></a></g><a href="https://ourworldindata.org/grapher/stratospheric-chorine-concentrations" target="_blank"><text font-size="25.2" x="15" y="35.2" fill="#555"><tspan x="15" y="35.16">Equivalent stratospheric chorine (ESC) concentrations</tspan></text></a><text font-size="14.4" x="15" y="53.7" fill="#666"><tspan x="15" y="53.72">Equivalent stratospheric chloric (ESC) concentrations with projections to 2100 based on chemistry-climate models.</tspan><tspan x="15" y="69.56">ESC concentrations are measured relative to levels in 1960 (1960 = 0), and measured as the global average, and</tspan><tspan x="15" y="85.4">regional average. Figures represent the mean across a number of model runs; model projections have notable</tspan><tspan x="15" y="101.24">uncertainty around such average trends.</tspan></text></g><g class="LineChart"><defs><clipPath id="a"><path d="M28.14 0h830v866.8h-830z"/></clipPath></defs><g class="AxisBoxView"><g class="HorizontalAxis" fill="#666" text-anchor="middle" font-size="16.2"><text x="38.1" y="556.5">1960</text><text x="139.5" y="556.5">1980</text><text x="240.8" y="556.5">2000</text><text x="342.1" y="556.5">2020</text><text x="443.4" y="556.5">2040</text><text x="544.7" y="556.5">2060</text><text x="646" y="556.5">2080</text><text x="747.4" y="556.5">2100</text></g><g class="VerticalAxis" fill="#666" dominant-baseline="middle" text-anchor="end" font-size="16.2"><text x="33.14" y="535.3">0</text><text x="33.14" y="466.6">10</text><text x="33.14" y="397.9">20</text><text x="33.14" y="329.2">30</text><text x="33.14" y="260.5">40</text><text x="33.14" y="191.8">50</text><text x="33.14" y="123.1">60</text></g><g class="AxisGridLines"><path stroke="#ccc" d="M38.14 535.3h709.21"/><path stroke="#ddd" stroke-dasharray="3,2" d="M38.14 466.6h709.21M38.14 397.9h709.21M38.14 329.2h709.21M38.14 260.5h709.21M38.14 191.8h709.21M38.14 123.1h709.21"/></g></g><g clip-path="url(#a)"><g class="HeightedLegend clickable"><g class="legendMark"><text font-size="13.5" x="752.4" y="467.3" fill="#34983f"><tspan x="752.35" y="467.25">Arctic</tspan></text></g><g class="legendMark"><text font-size="13.5" x="752.4" y="502.9" fill="#ca2628"><tspan x="752.35" y="502.95">Antarctic</tspan></text></g><g class="legendMark"><text font-size="13.5" x="752.4" y="522.1" fill="#3360a9"><tspan x="752.35" y="522.15">Global</tspan></text></g></g><g class="Lines"><g class="key-Antarctic_0"><path stroke="#ca2628" stroke-linecap="round" d="M38 535l26-9 25-21 25-38 26-57 25-71 25-70 25-57 26-33 25-7 25 16 26 26 25 27 25 24 26 19 25 20 25 20 26 26 25 23 25 22 26 16 25 11 25 14 26 14 25 14 25 14 26 7 25 7 25 7" fill="none" stroke-width="1.5"/><g fill="#ca2628"><circle cx="38" cy="535" r="2"/><circle cx="64" cy="526" r="2"/><circle cx="89" cy="505" r="2"/><circle cx="114" cy="467" r="2"/><circle cx="140" cy="410" r="2"/><circle cx="165" cy="339" r="2"/><circle cx="190" cy="269" r="2"/><circle cx="215" cy="212" r="2"/><circle cx="241" cy="179" r="2"/><circle cx="266" cy="172" r="2"/><circle cx="291" cy="188" r="2"/><circle cx="317" cy="214" r="2"/><circle cx="342" cy="241" r="2"/><circle cx="367" cy="265" r="2"/><circle cx="393" cy="284" r="2"/><circle cx="418" cy="304" r="2"/><circle cx="443" cy="324" r="2"/><circle cx="469" cy="350" r="2"/><circle cx="494" cy="373" r="2"/><circle cx="519" cy="395" r="2"/><circle cx="545" cy="411" r="2"/><circle cx="570" cy="422" r="2"/><circle cx="595" cy="436" r="2"/><circle cx="621" cy="450" r="2"/><circle cx="646" cy="464" r="2"/><circle cx="671" cy="478" r="2"/><circle cx="697" cy="485" r="2"/><circle cx="722" cy="492" r="2"/><circle cx="747" cy="499" r="2"/></g></g><g class="key-Arctic_0"><path stroke="#34983f" stroke-linecap="round" d="M38 535l26-40 25-19 25-33 26-51 25-61 25-61 25-50 26-30 25-5 25 14 26 24 25 24 25 22 26 18 25 17 25 18 26 19 25 18 25 18 26 17 25 8 25 11 26 10 25 13 25 10 26 8 25 6 25 3" fill="none" stroke-width="1.5"/><g fill="#34983f"><circle cx="38" cy="535" r="2"/><circle cx="64" cy="495" r="2"/><circle cx="89" cy="476" r="2"/><circle cx="114" cy="443" r="2"/><circle cx="140" cy="392" r="2"/><circle cx="165" cy="331" r="2"/><circle cx="190" cy="270" r="2"/><circle cx="215" cy="220" r="2"/><circle cx="241" cy="190" r="2"/><circle cx="266" cy="185" r="2"/><circle cx="291" cy="199" r="2"/><circle cx="317" cy="223" r="2"/><circle cx="342" cy="247" r="2"/><circle cx="367" cy="269" r="2"/><circle cx="393" cy="287" r="2"/><circle cx="418" cy="304" r="2"/><circle cx="443" cy="322" r="2"/><circle cx="469" cy="341" r="2"/><circle cx="494" cy="359" r="2"/><circle cx="519" cy="377" r="2"/><circle cx="545" cy="394" r="2"/><circle cx="570" cy="402" r="2"/><circle cx="595" cy="413" r="2"/><circle cx="621" cy="423" r="2"/><circle cx="646" cy="436" r="2"/><circle cx="671" cy="446" r="2"/><circle cx="697" cy="454" r="2"/><circle cx="722" cy="460" r="2"/><circle cx="747" cy="463" r="2"/></g></g><g class="key-Global_0"><path stroke="#3360a9" stroke-linecap="round" d="M38 535l26-7 25-13 25-23 26-32 25-40 25-39 25-31 26-17 25-3 25 11 26 18 25 17 25 15 26 12 25 11 25 13 26 14 25 15 25 9 26 9 25 7 25 8 26 8 25 7 25 7 26 4 25 2 25 1" fill="none" stroke-width="1.5"/><g fill="#3360a9"><circle cx="38" cy="535" r="2"/><circle cx="64" cy="528" r="2"/><circle cx="89" cy="515" r="2"/><circle cx="114" cy="492" r="2"/><circle cx="140" cy="460" r="2"/><circle cx="165" cy="420" r="2"/><circle cx="190" cy="381" r="2"/><circle cx="215" cy="350" r="2"/><circle cx="241" cy="333" r="2"/><circle cx="266" cy="330" r="2"/><circle cx="291" cy="341" r="2"/><circle cx="317" cy="359" r="2"/><circle cx="342" cy="376" r="2"/><circle cx="367" cy="391" r="2"/><circle cx="393" cy="403" r="2"/><circle cx="418" cy="414" r="2"/><circle cx="443" cy="427" r="2"/><circle cx="469" cy="441" r="2"/><circle cx="494" cy="456" r="2"/><circle cx="519" cy="465" r="2"/><circle cx="545" cy="474" r="2"/><circle cx="570" cy="481" r="2"/><circle cx="595" cy="489" r="2"/><circle cx="621" cy="497" r="2"/><circle cx="646" cy="504" r="2"/><circle cx="671" cy="511" r="2"/><circle cx="697" cy="515" r="2"/><circle cx="722" cy="517" r="2"/><circle cx="747" cy="518" r="2"/></g></g></g></g></g><g class="SourcesFooter" fill="#777"><g class="clickable" fill="#777"><text font-size="12.6" x="15" y="581.6"><tspan x="15" y="581.58">Source: Hegglin et al. (2014). Twenty questions and answers about the ozone layer: 2014 update.</tspan></text></g><text font-size="12.6" x="775.4" y="581.6"><tspan x="775.4" y="581.58"><a class="cclogo" href="http://creativecommons.org/licenses/by-sa/4.0/deed.en_US" target="_blank" fill="#777">CC BY-SA</a></tspan></text></g></g></svg>

<svg xmlns="http://www.w3.org/2000/svg" version="1.1" style="font-family: 'Helvetica Neue', Helvetica, Arial, sans-serif; font-size: 18px; background-color: white; text-rendering: optimizeLegibility; -webkit-font-smoothing: antialiased;" width="850" height="600"><g class="ChartTab"><g class="HeaderView"><g opacity="0.8" transform="translate(778, 15) scale(0.27)"><a xmlns:xlink="http://www.w3.org/1999/xlink" xlink:href="https://ourworldindata.org" target="_blank"><g><rect x="0" y="0" fill="#1B2543" width="211.2" height="130.1"/><rect x="0" y="112.2" fill="#E63912" width="211.2" height="17.9"/><g><rect x="1.2" y="12.3" fill="none" width="210.2" height="99.2"/><path fill="#FFFFFF" d="M37.8,32.2c0,12.7-7.7,19.4-17.1,19.4c-9.7,0-16.6-7.5-16.6-18.7c0-11.7,7.3-19.3,17.1-19.3 C31.3,13.7,37.8,21.3,37.8,32.2z M9.2,32.8c0,7.9,4.3,14.9,11.8,14.9c7.5,0,11.8-6.9,11.8-15.3c0-7.3-3.8-14.9-11.8-14.9 C13.1,17.5,9.2,24.8,9.2,32.8z"/><path fill="#FFFFFF" d="M62.7,43.8c0,2.7,0.1,5.1,0.2,7.2h-4.3l-0.3-4.3h-0.1c-1.3,2.1-4,4.9-8.8,4.9c-4.2,0-9.1-2.3-9.1-11.6 V24.6h4.8v14.6c0,5,1.5,8.4,5.9,8.4c3.2,0,5.5-2.2,6.3-4.4c0.3-0.7,0.4-1.6,0.4-2.5V24.6h4.8V43.8z"/><path fill="#FFFFFF" d="M67.3,32.8c0-3.1-0.1-5.8-0.2-8.2h4.2l0.2,5.2h0.2c1.2-3.5,4.1-5.8,7.3-5.8c0.5,0,0.9,0.1,1.4,0.2v4.5 c-0.5-0.1-1-0.2-1.6-0.2c-3.4,0-5.8,2.6-6.5,6.2c-0.1,0.7-0.2,1.4-0.2,2.2V51h-4.8V32.8z"/><path fill="#FFFFFF" d="M95.4,51l-9.4-36.8h5l4.4,18.6c1.1,4.6,2.1,9.2,2.7,12.7h0.1c0.6-3.7,1.8-8,3-12.8l4.9-18.5h5l4.5,18.7 c1,4.4,2,8.7,2.6,12.6h0.1c0.8-4,1.8-8.1,3-12.7l4.9-18.5h4.9L120.6,51h-5L111,31.9c-1.1-4.7-1.9-8.3-2.4-12h-0.1 c-0.7,3.7-1.5,7.3-2.8,12L100.4,51H95.4z"/><path fill="#FFFFFF" d="M154.9,37.6c0,9.8-6.8,14-13.2,14c-7.2,0-12.7-5.2-12.7-13.6c0-8.8,5.8-14,13.1-14 C149.8,24,154.9,29.5,154.9,37.6z M133.9,37.9c0,5.8,3.3,10.1,8,10.1c4.6,0,8-4.3,8-10.3c0-4.5-2.2-10.1-7.9-10.1 C136.3,27.6,133.9,32.8,133.9,37.9z"/><path fill="#FFFFFF" d="M158.2,32.8c0-3.1-0.1-5.8-0.2-8.2h4.2l0.2,5.2h0.2c1.2-3.5,4.1-5.8,7.3-5.8c0.5,0,0.9,0.1,1.4,0.2v4.5 c-0.5-0.1-1-0.2-1.6-0.2c-3.4,0-5.8,2.6-6.5,6.2c-0.1,0.7-0.2,1.4-0.2,2.2V51h-4.8V32.8z"/><path fill="#FFFFFF" d="M173.5,12.3h4.8V51h-4.8V12.3z"/><path fill="#FFFFFF" d="M206.5,12.3v31.9c0,2.3,0.1,5,0.2,6.8h-4.3l-0.2-4.6H202c-1.5,2.9-4.7,5.2-9,5.2 c-6.4,0-11.3-5.4-11.3-13.4c-0.1-8.8,5.4-14.2,11.9-14.2c4,0,6.8,1.9,8,4h0.1V12.3H206.5z M201.7,35.4c0-0.6-0.1-1.4-0.2-2 c-0.7-3.1-3.3-5.6-6.9-5.6c-5,0-7.9,4.4-7.9,10.2c0,5.3,2.6,9.8,7.8,9.8c3.2,0,6.2-2.1,7.1-5.7c0.2-0.7,0.2-1.3,0.2-2.1V35.4z"/><path fill="#FFFFFF" d="M42.8,64c0.1,1.6-1.1,2.9-3.1,2.9c-1.7,0-2.9-1.3-2.9-2.9c0-1.7,1.3-3,3-3C41.7,61,42.8,62.3,42.8,64z M37.4,97.8V71.4h4.8v26.4H37.4z"/><path fill="#FFFFFF" d="M47.5,78.6c0-2.7-0.1-5-0.2-7.1h4.3l0.3,4.4h0.1c1.3-2.5,4.4-5,8.8-5c3.7,0,9.4,2.2,9.4,11.2v15.8h-4.8 V82.6c0-4.3-1.6-7.8-6.1-7.8c-3.2,0-5.6,2.2-6.5,4.9c-0.2,0.6-0.3,1.4-0.3,2.2v15.9h-4.8V78.6z"/><path fill="#FFFFFF" d="M84,61.6c2.9-0.4,6.3-0.8,10.1-0.8c6.8,0,11.7,1.6,14.9,4.6c3.3,3,5.2,7.3,5.2,13.2c0,6-1.9,10.9-5.3,14.3 c-3.4,3.4-9.1,5.3-16.3,5.3c-3.4,0-6.2-0.2-8.6-0.4V61.6z M88.8,94.1c1.2,0.2,3,0.3,4.8,0.3c10.2,0,15.7-5.7,15.7-15.6 c0.1-8.7-4.9-14.2-14.9-14.2c-2.5,0-4.3,0.2-5.6,0.5V94.1z"/><path fill="#FFFFFF" d="M132.1,97.8l-0.4-3.3h-0.2c-1.5,2.1-4.3,3.9-8.1,3.9c-5.4,0-8.1-3.8-8.1-7.6c0-6.4,5.7-9.9,15.9-9.8v-0.5 c0-2.2-0.6-6.1-6-6.1c-2.5,0-5,0.8-6.9,2l-1.1-3.2c2.2-1.4,5.4-2.3,8.7-2.3c8.1,0,10.1,5.5,10.1,10.8v9.9c0,2.3,0.1,4.5,0.4,6.3 H132.1z M131.4,84.4c-5.3-0.1-11.2,0.8-11.2,5.9c0,3.1,2.1,4.6,4.5,4.6c3.4,0,5.6-2.2,6.4-4.4c0.2-0.5,0.3-1,0.3-1.5V84.4z"/><path fill="#FFFFFF" d="M146.6,63.9v7.6h6.9v3.7h-6.9v14.2c0,3.3,0.9,5.1,3.6,5.1c1.3,0,2.2-0.2,2.8-0.3l0.2,3.6 c-0.9,0.4-2.4,0.7-4.3,0.7c-2.2,0-4-0.7-5.2-2c-1.4-1.4-1.9-3.8-1.9-6.9V75.1h-4.1v-3.7h4.1v-6.3L146.6,63.9z"/><path fill="#FFFFFF" d="M171.4,97.8l-0.4-3.3h-0.2c-1.5,2.1-4.3,3.9-8.1,3.9c-5.4,0-8.1-3.8-8.1-7.6c0-6.4,5.7-9.9,15.9-9.8v-0.5 c0-2.2-0.6-6.1-6-6.1c-2.5,0-5,0.8-6.9,2l-1.1-3.2c2.2-1.4,5.4-2.3,8.7-2.3c8.1,0,10.1,5.5,10.1,10.8v9.9c0,2.3,0.1,4.5,0.4,6.3 H171.4z M170.7,84.4c-5.3-0.1-11.2,0.8-11.2,5.9c0,3.1,2.1,4.6,4.5,4.6c3.4,0,5.6-2.2,6.4-4.4c0.2-0.5,0.3-1,0.3-1.5V84.4z"/></g></g></a></g><a href="https://ourworldindata.org/grapher/stratospheric-chorine-concentrations" target="_blank"><text font-size="25.20" x="15.0" y="35.2" fill="#555"><tspan x="15" y="35.160000000000004">Equivalent stratospheric chorine (ESC) concentrations</tspan></text></a><text font-size="14.40" x="15.0" y="53.7" fill="#666"><tspan x="15" y="53.72">Equivalent stratospheric chloric (ESC) concentrations with projections to 2100 based on chemistry-climate models.</tspan><tspan x="15" y="69.56">ESC concentrations are measured relative to levels in 1960 (1960 = 0), and measured as the global average, and</tspan><tspan x="15" y="85.4">regional average. Figures represent the mean across a number of model runs; model projections have notable</tspan><tspan x="15" y="101.24000000000001">uncertainty around such average trends.</tspan></text></g><g class="LineChart"><defs><clipPath id="boundsClip-71"><rect x="28.144000000000005" y="0" width="830" height="866.8"></rect></clipPath></defs><g class="AxisBoxView"><g class="HorizontalAxis"><text x="38.1" y="556.5" fill="#666" text-anchor="middle" font-size="16.2">1960</text><text x="139.5" y="556.5" fill="#666" text-anchor="middle" font-size="16.2">1980</text><text x="240.8" y="556.5" fill="#666" text-anchor="middle" font-size="16.2">2000</text><text x="342.1" y="556.5" fill="#666" text-anchor="middle" font-size="16.2">2020</text><text x="443.4" y="556.5" fill="#666" text-anchor="middle" font-size="16.2">2040</text><text x="544.7" y="556.5" fill="#666" text-anchor="middle" font-size="16.2">2060</text><text x="646" y="556.5" fill="#666" text-anchor="middle" font-size="16.2">2080</text><text x="747.4" y="556.5" fill="#666" text-anchor="middle" font-size="16.2">2100</text></g><g class="VerticalAxis"><text x="33.14" y="535.3" fill="#666" dominant-baseline="middle" text-anchor="end" font-size="16.2">0</text><text x="33.14" y="466.6" fill="#666" dominant-baseline="middle" text-anchor="end" font-size="16.2">10</text><text x="33.14" y="397.9" fill="#666" dominant-baseline="middle" text-anchor="end" font-size="16.2">20</text><text x="33.14" y="329.2" fill="#666" dominant-baseline="middle" text-anchor="end" font-size="16.2">30</text><text x="33.14" y="260.5" fill="#666" dominant-baseline="middle" text-anchor="end" font-size="16.2">40</text><text x="33.14" y="191.8" fill="#666" dominant-baseline="middle" text-anchor="end" font-size="16.2">50</text><text x="33.14" y="123.1" fill="#666" dominant-baseline="middle" text-anchor="end" font-size="16.2">60</text></g><g class="AxisGridLines"><line x1="38.14" y1="535.3" x2="747.35" y2="535.3" stroke="#ccc"></line><line x1="38.14" y1="466.6" x2="747.35" y2="466.6" stroke="#ddd" stroke-dasharray="3,2"></line><line x1="38.14" y1="397.9" x2="747.35" y2="397.9" stroke="#ddd" stroke-dasharray="3,2"></line><line x1="38.14" y1="329.2" x2="747.35" y2="329.2" stroke="#ddd" stroke-dasharray="3,2"></line><line x1="38.14" y1="260.5" x2="747.35" y2="260.5" stroke="#ddd" stroke-dasharray="3,2"></line><line x1="38.14" y1="191.8" x2="747.35" y2="191.8" stroke="#ddd" stroke-dasharray="3,2"></line><line x1="38.14" y1="123.1" x2="747.35" y2="123.1" stroke="#ddd" stroke-dasharray="3,2"></line></g></g><g clip-path="url(#boundsClip-71)"><g class="HeightedLegend clickable"><g class="legendMark"><rect x="747.35" y="456.45" width="68.75" height="13.5" fill="#fff" opacity="0"></rect><text font-size="13.50" x="752.4" y="467.3" fill="#34983f"><tspan x="752.35" y="467.25">Arctic</tspan></text></g><g class="legendMark"><rect x="747.35" y="492.15" width="87.65" height="13.5" fill="#fff" opacity="0"></rect><text font-size="13.50" x="752.4" y="502.9" fill="#ca2628"><tspan x="752.35" y="502.95">Antarctic</tspan></text></g><g class="legendMark"><rect x="747.35" y="511.35" width="74.15" height="13.5" fill="#fff" opacity="0"></rect><text font-size="13.50" x="752.4" y="522.1" fill="#3360a9"><tspan x="752.35" y="522.15">Global</tspan></text></g></g><g class="Lines"><rect x="38" y="123" width="709" height="412" fill="rgba(255,255,255,0)" opacity="0"></rect><g class="key-Antarctic_0"><path stroke="#ca2628" stroke-linecap="round" d="M38 535L64 526L89 505L114 467L140 410L165 339L190 269L215 212L241 179L266 172L291 188L317 214L342 241L367 265L393 284L418 304L443 324L469 350L494 373L519 395L545 411L570 422L595 436L621 450L646 464L671 478L697 485L722 492L747 499" fill="none" stroke-width="1.5"></path><g fill="#ca2628"><circle cx="38" cy="535" r="2"></circle><circle cx="64" cy="526" r="2"></circle><circle cx="89" cy="505" r="2"></circle><circle cx="114" cy="467" r="2"></circle><circle cx="140" cy="410" r="2"></circle><circle cx="165" cy="339" r="2"></circle><circle cx="190" cy="269" r="2"></circle><circle cx="215" cy="212" r="2"></circle><circle cx="241" cy="179" r="2"></circle><circle cx="266" cy="172" r="2"></circle><circle cx="291" cy="188" r="2"></circle><circle cx="317" cy="214" r="2"></circle><circle cx="342" cy="241" r="2"></circle><circle cx="367" cy="265" r="2"></circle><circle cx="393" cy="284" r="2"></circle><circle cx="418" cy="304" r="2"></circle><circle cx="443" cy="324" r="2"></circle><circle cx="469" cy="350" r="2"></circle><circle cx="494" cy="373" r="2"></circle><circle cx="519" cy="395" r="2"></circle><circle cx="545" cy="411" r="2"></circle><circle cx="570" cy="422" r="2"></circle><circle cx="595" cy="436" r="2"></circle><circle cx="621" cy="450" r="2"></circle><circle cx="646" cy="464" r="2"></circle><circle cx="671" cy="478" r="2"></circle><circle cx="697" cy="485" r="2"></circle><circle cx="722" cy="492" r="2"></circle><circle cx="747" cy="499" r="2"></circle></g></g><g class="key-Arctic_0"><path stroke="#34983f" stroke-linecap="round" d="M38 535L64 495L89 476L114 443L140 392L165 331L190 270L215 220L241 190L266 185L291 199L317 223L342 247L367 269L393 287L418 304L443 322L469 341L494 359L519 377L545 394L570 402L595 413L621 423L646 436L671 446L697 454L722 460L747 463" fill="none" stroke-width="1.5"></path><g fill="#34983f"><circle cx="38" cy="535" r="2"></circle><circle cx="64" cy="495" r="2"></circle><circle cx="89" cy="476" r="2"></circle><circle cx="114" cy="443" r="2"></circle><circle cx="140" cy="392" r="2"></circle><circle cx="165" cy="331" r="2"></circle><circle cx="190" cy="270" r="2"></circle><circle cx="215" cy="220" r="2"></circle><circle cx="241" cy="190" r="2"></circle><circle cx="266" cy="185" r="2"></circle><circle cx="291" cy="199" r="2"></circle><circle cx="317" cy="223" r="2"></circle><circle cx="342" cy="247" r="2"></circle><circle cx="367" cy="269" r="2"></circle><circle cx="393" cy="287" r="2"></circle><circle cx="418" cy="304" r="2"></circle><circle cx="443" cy="322" r="2"></circle><circle cx="469" cy="341" r="2"></circle><circle cx="494" cy="359" r="2"></circle><circle cx="519" cy="377" r="2"></circle><circle cx="545" cy="394" r="2"></circle><circle cx="570" cy="402" r="2"></circle><circle cx="595" cy="413" r="2"></circle><circle cx="621" cy="423" r="2"></circle><circle cx="646" cy="436" r="2"></circle><circle cx="671" cy="446" r="2"></circle><circle cx="697" cy="454" r="2"></circle><circle cx="722" cy="460" r="2"></circle><circle cx="747" cy="463" r="2"></circle></g></g><g class="key-Global_0"><path stroke="#3360a9" stroke-linecap="round" d="M38 535L64 528L89 515L114 492L140 460L165 420L190 381L215 350L241 333L266 330L291 341L317 359L342 376L367 391L393 403L418 414L443 427L469 441L494 456L519 465L545 474L570 481L595 489L621 497L646 504L671 511L697 515L722 517L747 518" fill="none" stroke-width="1.5"></path><g fill="#3360a9"><circle cx="38" cy="535" r="2"></circle><circle cx="64" cy="528" r="2"></circle><circle cx="89" cy="515" r="2"></circle><circle cx="114" cy="492" r="2"></circle><circle cx="140" cy="460" r="2"></circle><circle cx="165" cy="420" r="2"></circle><circle cx="190" cy="381" r="2"></circle><circle cx="215" cy="350" r="2"></circle><circle cx="241" cy="333" r="2"></circle><circle cx="266" cy="330" r="2"></circle><circle cx="291" cy="341" r="2"></circle><circle cx="317" cy="359" r="2"></circle><circle cx="342" cy="376" r="2"></circle><circle cx="367" cy="391" r="2"></circle><circle cx="393" cy="403" r="2"></circle><circle cx="418" cy="414" r="2"></circle><circle cx="443" cy="427" r="2"></circle><circle cx="469" cy="441" r="2"></circle><circle cx="494" cy="456" r="2"></circle><circle cx="519" cy="465" r="2"></circle><circle cx="545" cy="474" r="2"></circle><circle cx="570" cy="481" r="2"></circle><circle cx="595" cy="489" r="2"></circle><circle cx="621" cy="497" r="2"></circle><circle cx="646" cy="504" r="2"></circle><circle cx="671" cy="511" r="2"></circle><circle cx="697" cy="515" r="2"></circle><circle cx="722" cy="517" r="2"></circle><circle cx="747" cy="518" r="2"></circle></g></g></g></g></g><g style="fill: #777;" class="SourcesFooter"><g style="fill: #777;" class="clickable"><text font-size="12.60" x="15.0" y="581.6"><tspan x="15" y="581.58">Source: Hegglin et al. (2014).  Twenty questions and answers about the ozone layer: 2014 update.</tspan></text></g><text font-size="12.60" x="775.4" y="581.6"><tspan x="775.402" y="581.58"><a style="fill: #777;" class="cclogo" href="http://creativecommons.org/licenses/by-sa/4.0/deed.en_US" target="_blank">CC BY-SA</a></tspan></text></g></g></svg>
